X: 3334
T: FORECASTLE
%R: hornpipe, reel
B: James Kerr "Merry Melodies" v.3 p.36 #334
Z: 2016 John Chambers <jc:trillian.mit.edu>
M: C
L: 1/8
K: D
A2 !segno!|\
f2(ed) dcdB | AFDF AFBA |\
GFEF GABc | defd A2A2 |\
f2(fe) dcdB | AFDF AFBA |\
GFEF GABc | d2d2d2 :|
|: (cd) |\
e^dec A2(=de) | fefd A2f2 |\
gfeg fedf | edcB A2(cd) |\
e^dec A2(=de) | fefd A2a2 |\
^gfef edcB |[1 A2A2A2 :|[2 A2(^GA) Bcde |]

%%sep 1 1 500
%%sep 1 1 500

